!!!OTL: Tageweis von der Koenigstochter und dem jungen Grafen. / a. Erste Melodie (1545).
!!!ARE: Europa, Mitteleuropa, Deutschland
!!!SCT: A0020A
!!!TXL: @@GMH
!!!YEM: Copyright 1995, estate of Helmut Schaffrath.
**kern	**text
!! Mixed meters:  3/1; 2/1
*M3/1	*
*met(c|)	*
*k[]	*
*clefC3	*
*A:aeo	*
!LO:TX:a:t=aeol.	!
!LO:N:vis=0	!
{1A	Könt
=1	=1
1A	ich
2A	von
1G	her-
2E	-tʒen
=2	=2
1G	ſin-
1A}	-gen
{1c	ein
=3	=3
1c	hüb-
2e	-ſche
1c	ta-
2A	-ge-
=4	=4
*lig	*
1G	-weis,
!LO:N:vis=0	!
1A}	.
*Xlig	*
{1A	Von
=5	=5
1A	lieb
2A	vnd
1G	bit-
2E	-tern
=6	=6
1G	ſchmertʒen,
1A}	.
{1c	nun
=7	=7
1c	mer-
2e	-cket
1c	auff
2A	mit
=8	=8
*lig	*
1G	fleis,
!LO:N:vis=0	!
1A}	.
*Xlig	*
{1c	Wie
=9	=9
1c	es
2B	eins
1c	kö-
2A	-nigs
=10	=10
2.B	tochter
4A#	er-
!LO:N:vis=1	!
2G	-gieng
2r}	.
{1c	mit
=11	=11
1c	ei-
2B	-nem
1c	jungen
2d	.
=12	=12
*M2/1	*
*lig	*
1e	gra-
2c	.
4B	.
4A}	.
*Xlig	*
=13	=13
{1G	-fen,
1c	nun
=14	=14
*M3/1	*
1c	hört
2e	hübſch
1c	wun-
2A	-der-
=15	=15
*lig	*
1G	-ding!
!LO:N:vis=00	!
1A/ll}	.
*Xlig	*
{1c	Wie
=16	=16
1c	es
2B	eins
1c	kö-
2A	-nigs
=17	=17
2.B	tochter
4A#	er-
!LO:N:vis=1	!
2G	-gieng
2r}	.
{1c	mit
=18	=18
1c	ei-
2B	-nem
1c	jungen
2d	.
=19	=19
*M2/1	*
*lig	*
1e	gra-
2c	.
4B	.
4A}	.
*Xlig	*
=20	=20
{1G	-fen,
1c	nun
=21	=21
*M3/1	*
1c	hört
2e	hübſch
1c	wun-
2A	-der-
=22	=22
*lig	*
1G	-ding!
!LO:N:vis=00	!
1A/ll}	.
*Xlig	*
==	==
!!!GTL: Balladen und Romanzen (erzählende Volkslieder)
!!!AGN: Romanze, Ballade, Lied
!! Melodie von 1545; vgl Kirchenlied "Hilf Gott, dass mir gelinge"
!!!ONB: ESAC (Essen Associative Code) Database: ALTDEU
!!!AMT: irregular
!!!AIN: vox
!!!EED: Helmut Schaffrath
!!!EEV: 1.0
!!!RDF**kern: l = terminal long
!!!AMD: Aeolian
!!!URL-scan: https://rosdok.uni-rostock.de/mcrviewer/recordIdentifier/rosdok_ppn738218359/iview2/phys_0149.iview2?x=-955.4044398057085&y=1381.4048730732175&scale=0.35505986316989735&rotation=0&layout=singlePageLayout&logicalDiv=log_0007
!!!ENC: Anna Maria Matuszewska
!!!EEV: 2024/16/02
*-	*-
